X:1
T:Du Lifvets Bröd, 87.87.887
T:Du Lifvets Bröd, 87.87.887
T:Peter Sohren, 1668
T:Public Domain Courtesy of the Cyber Hymnal™
C:Peter Sohren, 1668
Z:Public Domain
Z:Courtesy of the Cyber Hymnal™
%%score ( 1 2 ) 3
L:1/8
Q:1/4=110
M:2/4
K:Bb
V:1 treble 
V:2 treble 
V:3 bass 
V:1
 [DF]2 [FB]2 | [Ec]2 [Dd]2 | [EG]2 [Gc]2 | [GB]2 !fermata![^FA]2 | F2 [EG]2 | [EA]2 [FB]2 | %6
 [Fd]2 c4 | F2 [DB]2- | [DB]4 | [DF]2 [FB]2 | [Ec]2 [Dd]2 | [EG]2 [Gc]2 | [GB]2 !fermata![^FA]2 | %13
 F2 [EG]2 | [EA]2 [FB]2 | [Fd]2 c4 | F2 [DB]2- | [DB]2 [FB]2 | [FA]2 [DG]2 | [DF]2 [DG]2 | %20
 [CE]2 [CF]2 | !fermata![B,D]2 [DF]2 | [EG]2 [EA]2 | [FB]2 [FA]2 | [FG]2 [=EG]2 | [CF]4 | %26
 [DF]2 [DB]2 | [Fc]2 [Ee]2 | [Gd]2 c4 | F2 [DB]2- | [DB]4 |] %31
V:2
 x4 | x4 | x4 | x4 | x4 | x4 | x2 G2 x2 | x4 | x4 | x4 | x4 | x4 | x4 | x4 | x4 | x2 G2 x2 | x4 | %17
 x4 | x4 | x4 | x4 | x4 | x4 | x4 | x4 | x4 | x4 | x4 | x2 G2 x2 | F2 x2 | x4 |] %31
V:3
 [B,,B,]2 [D,F,]2 | [C,A,]2 [B,,B,]2 | [E,B,]2 [C,E]2 | [G,,D]2 !fermata![D,D]2 | [D,B,]2 [E,B,]2 | %5
 [C,C]2 [D,B,]2 | [B,,B,]2 [E,B,]2 x2 | [F,A,]2 [B,,B,]2- | [B,,B,]4 | [B,,B,]2 [D,F,]2 | %10
 [C,A,]2 [B,,B,]2 | [E,B,]2 [C,E]2 | [G,,D]2 !fermata![D,D]2 | [D,B,]2 [E,B,]2 | [C,C]2 [D,B,]2 | %15
 [B,,B,]2 [E,B,]2 x2 | [F,A,]2 [B,,B,]2- | [B,,B,]2 [D,B,]2 | [F,C]2 [G,B,]2 | [D,A,]2 [B,,G,]2 | %20
 [C,G,]2 [A,,F,]2 | [B,,F,]2 B,2 | [E,B,]2 [C,C]2 | [B,,D]2 [F,C]2 | [B,,D]2 [C,C]2 | [F,A,]4 | %26
 B,2 [G,B,]2 | [F,A,]2 [C,G,]2 | [G,B,]2 [E,B,]2 x2 | [F,A,]2 [B,,B,]2- | [B,,B,]4 |] %31

